images/merging-workflows-1.svg

<?xml version="1.0"?>
<svg xmlns="http://www.w3.org/2000/svg" xmlns:xlink="http://www.w3.org/1999/xlink" width="594px" height="220px" viewBox="0 0 594 220" version="1.1">
    <!-- Generator: Sketch 56.3 (81716) - https://sketch.com -->
    <title>images/merging-workflows-1</title>
    <desc>Created with Sketch.</desc>
    <g id="05---Merging-Workflows-1" stroke="none" stroke-width="1" fill="none" fill-rule="evenodd">
        <g id="Line-+-brown-2" transform="translate(6.000000, 66.000000)">
            <g id="brown">
                <rect id="Rectangle-1" fill="#EFEFE7" fill-rule="evenodd" x="0" y="0" width="89" height="33" rx="16.5"/>
                <text stroke="none" font-family="Source Code Pro" font-size="12px" font-weight="700" fill="#979797" fill-opacity="1" text-anchor="middle" id="C6">
                    <tspan fill="#808080" x="44.5" y="21" fill-opacity="1">C1</tspan>
                </text>
            </g>
        </g>
        <g id="Line-+-brown-3" transform="translate(95.000000, 66.000000)">
            <path id="Line" d="M9,16 L54,16 L54,17 L9,17 L9,21 L0,16.5 L9,12 L9,16 Z" fill="#8F8981" fill-rule="nonzero"/>
            <g id="brown" transform="translate(30.000000, 0.000000)">
                <rect id="Rectangle-1" fill="#EFEFE7" fill-rule="evenodd" x="0" y="0" width="89" height="33" rx="16.5"/>
                <text stroke="none" font-family="Source Code Pro" font-size="12px" font-weight="700" fill="#979797" fill-opacity="1" text-anchor="middle" id="C6">
                    <tspan fill="#808080" x="44.5" y="21" fill-opacity="1">C2</tspan>
                </text>
            </g>
        </g>
        <path id="Line" d="M223,82 L268,82 L268,83 L223,83 L223,87 L214,82.5 L223,78 L223,82 Z" fill="#8F8981" fill-rule="nonzero"/>
        <g id="brown" transform="translate(244.000000, 66.000000)">
            <rect id="Rectangle-1" fill="#EFEFE7" fill-rule="evenodd" x="0" y="0" width="89" height="33" rx="16.5"/>
            <text stroke="none" font-family="Source Code Pro" font-size="12px" font-weight="700" fill="#979797" fill-opacity="1" text-anchor="middle" id="C6">
                <tspan fill="#808080" x="44.5" y="21" fill-opacity="1">C7</tspan>
            </text>
        </g>
        <g id="Line-+-brown-5" transform="translate(209.000000, 94.000000)">
            <path id="Line" d="M7.83266063,4.82805823 L59.1939201,39.3640775 L58.6359225,40.1939201 L7.27466304,5.6579008 L5.04267269,8.97727107 L0.0850787153,0.221001205 L10.064651,1.50868795 L7.83266063,4.82805823 Z" fill="#8F8981" fill-rule="nonzero"/>
            <g id="brown" transform="translate(35.000000, 23.000000)">
                <rect id="Rectangle-1" fill="#EFEFE7" fill-rule="evenodd" x="0" y="0" width="89" height="33" rx="16.5"/>
                <text stroke="none" font-family="Source Code Pro" font-size="12px" font-weight="700" fill="#979797" fill-opacity="1" text-anchor="middle" id="C6">
                    <tspan fill="#808080" x="44.5" y="21" fill-opacity="1">C3</tspan>
                </text>
            </g>
        </g>
        <g id="Line-+-brown-6" transform="translate(333.000000, 117.000000)">
            <path id="Line" d="M9,16 L54,16 L54,17 L9,17 L9,21 L0,16.5 L9,12 L9,16 Z" fill="#8F8981" fill-rule="nonzero"/>
            <g id="brown" transform="translate(30.000000, 0.000000)">
                <rect id="Rectangle-1" fill="#EFEFE7" fill-rule="evenodd" x="0" y="0" width="89" height="33" rx="16.5"/>
                <text stroke="none" font-family="Source Code Pro" font-size="12px" font-weight="700" fill="#979797" fill-opacity="1" text-anchor="middle" id="C6">
                    <tspan fill="#808080" x="44.5" y="21" fill-opacity="1">C4</tspan>
                </text>
            </g>
        </g>
        <g id="Line-+-brown-8" transform="translate(194.000000, 99.000000)">
            <path id="Line" d="M2.84615918,8.33005755 C10.6171168,29.1929194 19.0462258,47.3740677 26.6689035,56.4388736 C28.6262346,58.7665105 31.3337528,61.2988892 34.7083199,64.0018003 C38.5129603,67.0491852 43.0993832,70.261845 48.2992072,73.5772568 C53.8602248,77.122966 59.8202853,80.597688 65.7805632,83.8555841 C67.8667939,84.9959206 69.8038994,86.0276258 71.5420924,86.9325318 C72.1502375,87.2491331 72.6900017,87.5272316 73.1551632,87.7645577 C73.4338878,87.9067635 73.625574,88.0036618 73.7240007,88.0529836 L74.1710171,88.2769842 L73.7230158,89.1710171 L73.2759993,88.9470164 C73.1754448,88.8966284 72.9816047,88.7986413 72.7006946,88.6553205 C72.2331314,88.416769 71.6909349,88.1374173 71.0803198,87.8195301 C69.3363407,86.9116119 67.3933116,85.8767518 65.3009357,84.7330563 C59.3223379,81.4651465 53.3435226,77.9794904 47.7615895,74.4204455 C42.5337132,71.0871475 37.9189949,67.8546677 34.0831655,64.7823014 C30.6615423,62.0417 27.9084742,59.4667179 25.9035414,57.0824735 C18.1782741,47.8956692 9.7186976,29.6478502 1.90478736,8.66765425 L-1.86649704,10.0201201 L-0.668785489,0.0293499614 L6.60520365,6.98198126 L2.84615918,8.33005755 Z" fill="#8F8981" fill-rule="nonzero"/>
            <g id="brown" transform="translate(50.000000, 71.000000)">
                <rect id="Rectangle-1" fill="#EFEFE7" fill-rule="evenodd" x="0" y="0" width="89" height="33" rx="16.5"/>
                <text stroke="none" font-family="Source Code Pro" font-size="12px" font-weight="700" fill="#979797" fill-opacity="1" text-anchor="middle" id="C6">
                    <tspan fill="#808080" x="44.5" y="21" fill-opacity="1">C5</tspan>
                </text>
            </g>
        </g>
        <g id="Line-+-brown-7" transform="translate(333.000000, 170.000000)">
            <path id="Line" d="M9,16 L54,16 L54,17 L9,17 L9,21 L0,16.5 L9,12 L9,16 Z" fill="#8F8981" fill-rule="nonzero"/>
            <g id="brown" transform="translate(30.000000, 0.000000)">
                <rect id="Rectangle-1" fill="#EFEFE7" fill-rule="evenodd" x="0" y="0" width="89" height="33" rx="16.5"/>
                <text stroke="none" font-family="Source Code Pro" font-size="12px" font-weight="700" fill="#979797" fill-opacity="1" text-anchor="middle" id="C6">
                    <tspan fill="#808080" x="44.5" y="21" fill-opacity="1">C6</tspan>
                </text>
            </g>
        </g>
        <g id="Line-2-+-ref" transform="translate(246.000000, 9.000000)">
            <path id="Line-2" d="M42,48 L42,5 L43,5 L43,48 L47,48 L42.5,57 L38,48 L42,48 Z" fill="#8F8981" fill-rule="nonzero"/>
            <g id="ref">
                <rect id="Rectangle-2" fill="#F44D27" fill-rule="evenodd" x="0" y="0" width="106" height="33"/>
                <text stroke="none" font-family="Source Code Pro" font-size="12px" font-weight="700" fill="#979797" fill-opacity="1" text-anchor="middle" id="master">
                    <tspan fill="#f0f0f0" x="53" y="20" fill-opacity="1">master</tspan>
                </text>
            </g>
        </g>
        <g id="Line-2-+-ref-2" transform="translate(452.000000, 117.000000)">
            <path id="Line-2" d="M9,16 L69,16 L69,17 L9,17 L9,21 L0,16.5 L9,12 L9,16 Z" fill="#8F8981" fill-rule="nonzero"/>
            <g id="ref" transform="translate(26.000000, 0.000000)">
                <rect id="Rectangle-2" fill="#F44D27" fill-rule="evenodd" x="0" y="0" width="106" height="33"/>
                <text stroke="none" font-family="Source Code Pro" font-size="12px" font-weight="700" fill="#979797" fill-opacity="1" text-anchor="middle" id="master">
                    <tspan fill="#f0f0f0" x="53" y="20" fill-opacity="1">ruby_client</tspan>
                </text>
            </g>
        </g>
        <g id="Line-2-+-ref-3" transform="translate(452.000000, 170.000000)">
            <path id="Line-2" d="M9,16 L69,16 L69,17 L9,17 L9,21 L0,16.5 L9,12 L9,16 Z" fill="#8F8981" fill-rule="nonzero"/>
            <g id="ref" transform="translate(26.000000, 0.000000)">
                <rect id="Rectangle-2" fill="#F44D27" fill-rule="evenodd" x="0" y="0" width="106" height="33"/>
                <text stroke="none" font-family="Source Code Pro" font-size="12px" font-weight="700" fill="#979797" fill-opacity="1" text-anchor="middle" id="master">
                    <tspan fill="#f0f0f0" x="53" y="20" fill-opacity="1">php_client</tspan>
                </text>
            </g>
        </g>
    </g>
</svg>

<?xml version="1.0" encoding="UTF-8"?>
<svg id="svg10295" version="1.1" viewBox="0 0 569 202" xmlns="http://www.w3.org/2000/svg" xmlns:cc="http://creativecommons.org/ns#" xmlns:dc="http://purl.org/dc/elements/1.1/" xmlns:rdf="http://www.w3.org/1999/02/22-rdf-syntax-ns#">
 <metadata id="metadata10301">
  <rdf:RDF>
   <cc:Work rdf:about="">
    <dc:format>image/svg+xml</dc:format>
    <dc:type rdf:resource="http://purl.org/dc/dcmitype/StillImage"/>
    <dc:title>images/merging-workflows-1</dc:title>
   </cc:Work>
  </rdf:RDF>
 </metadata>
 <!-- Generator: Sketch 56.3 (81716) - https://sketch.com -->
 <title id="title10191">images/merging-workflows-1</title>
 <desc id="desc10193">Created with Sketch.</desc>
 <g id="g10483" transform="translate(-2,-5)">
  <g id="Line-+-brown-2" transform="translate(6,66)" style="fill-rule:evenodd;fill:none">
   <g id="brown">
    <rect id="Rectangle-1" width="89" height="33" rx="16.5" ry="16.5" style="fill-rule:evenodd;fill:#efefe7"/>
    <text id="C6" font-size="12px" font-weight="700" style="fill:#979797;font-family:'Source Code Pro';font-size:12px;font-weight:700;text-anchor:middle"><tspan id="tspan10196" x="44.5" y="21" style="fill:gray">C1</tspan></text>
   </g>
  </g>
  <g id="Line-+-brown-3" transform="translate(95,66)" style="fill-rule:evenodd;fill:none">
   <path id="Line" d="m9 16h45v1h-45v4l-9-4.5 9-4.5z" style="fill-rule:nonzero;fill:#8f8981"/>
   <g id="g10208" transform="translate(30)">
    <rect id="rect10202" width="89" height="33" rx="16.5" ry="16.5" style="fill-rule:evenodd;fill:#efefe7"/>
    <text id="text10206" font-size="12px" font-weight="700" style="fill:#979797;font-family:'Source Code Pro';font-size:12px;font-weight:700;text-anchor:middle"><tspan id="tspan10204" x="44.5" y="21" style="fill:gray">C2</tspan></text>
   </g>
  </g>
  <path id="path10211" d="m223 82h45v1h-45v4l-9-4.5 9-4.5z" style="fill:#8f8981"/>
  <g id="g10219" transform="translate(244,66)" style="fill-rule:evenodd;fill:none">
   <rect id="rect10213" width="89" height="33" rx="16.5" ry="16.5" style="fill-rule:evenodd;fill:#efefe7"/>
   <text id="text10217" font-size="12px" font-weight="700" style="fill:#979797;font-family:'Source Code Pro';font-size:12px;font-weight:700;text-anchor:middle"><tspan id="tspan10215" x="44.5" y="21" style="fill:gray">C7</tspan></text>
  </g>
  <g id="Line-+-brown-5" transform="translate(209,94)" style="fill-rule:evenodd;fill:none">
   <path id="path10221" d="m7.8327 4.8281 51.361 34.536-.558.82984-51.361-34.536-2.232 3.3194-4.9576-8.7563 9.9796 1.2877z" style="fill-rule:nonzero;fill:#8f8981"/>
   <g id="g10229" transform="translate(35,23)">
    <rect id="rect10223" width="89" height="33" rx="16.5" ry="16.5" style="fill-rule:evenodd;fill:#efefe7"/>
    <text id="text10227" font-size="12px" font-weight="700" style="fill:#979797;font-family:'Source Code Pro';font-size:12px;font-weight:700;text-anchor:middle"><tspan id="tspan10225" x="44.5" y="21" style="fill:gray">C3</tspan></text>
   </g>
  </g>
  <g id="Line-+-brown-6" transform="translate(333,117)" style="fill-rule:evenodd;fill:none">
   <path id="path10232" d="m9 16h45v1h-45v4l-9-4.5 9-4.5z" style="fill-rule:nonzero;fill:#8f8981"/>
   <g id="g10240" transform="translate(30)">
    <rect id="rect10234" width="89" height="33" rx="16.5" ry="16.5" style="fill-rule:evenodd;fill:#efefe7"/>
    <text id="text10238" font-size="12px" font-weight="700" style="fill:#979797;font-family:'Source Code Pro';font-size:12px;font-weight:700;text-anchor:middle"><tspan id="tspan10236" x="44.5" y="21" style="fill:gray">C4</tspan></text>
   </g>
  </g>
  <g id="Line-+-brown-8" transform="translate(194,99)" style="fill-rule:evenodd;fill:none">
   <path id="path10243" d="m2.8462 8.3301c7.771 20.863 16.2 39.044 23.823 48.109 1.9573 2.3276 4.6648 4.86 8.0394 7.5629 3.8046 3.0474 8.3911 6.26 13.591 9.5755 5.561 3.5457 11.521 7.0204 17.481 10.278 2.0862 1.1403 4.0233 2.172 5.7615 3.0769.60815.3166 1.1479.5947 1.6131.83203.27872.1422.47041.2391.56884.28843l.44702.224-.448.89403-.44702-.224c-.10055-.050388-.29439-.14838-.5753-.2917-.46756-.23855-1.0098-.5179-1.6204-.83579-1.744-.90792-3.687-1.9428-5.7794-3.0865-5.9786-3.2679-11.957-6.7536-17.539-10.313-5.2279-3.3333-9.8426-6.5658-13.678-9.6381-3.4216-2.7406-6.1747-5.3156-8.1796-7.6998-7.7253-9.1868-16.185-27.435-23.999-48.415l-3.7713 1.3525 1.1977-9.9908 7.274 6.9526z" style="fill-rule:nonzero;fill:#8f8981"/>
   <g id="g10251" transform="translate(50,71)">
    <rect id="rect10245" width="89" height="33" rx="16.5" ry="16.5" style="fill-rule:evenodd;fill:#efefe7"/>
    <text id="text10249" font-size="12px" font-weight="700" style="fill:#979797;font-family:'Source Code Pro';font-size:12px;font-weight:700;text-anchor:middle"><tspan id="tspan10247" x="44.5" y="21" style="fill:gray">C5</tspan></text>
   </g>
  </g>
  <g id="Line-+-brown-7" transform="translate(333,170)" style="fill-rule:evenodd;fill:none">
   <path id="path10254" d="m9 16h45v1h-45v4l-9-4.5 9-4.5z" style="fill-rule:nonzero;fill:#8f8981"/>
   <g id="g10262" transform="translate(30)">
    <rect id="rect10256" width="89" height="33" rx="16.5" ry="16.5" style="fill-rule:evenodd;fill:#efefe7"/>
    <text id="text10260" font-size="12px" font-weight="700" style="fill:#979797;font-family:'Source Code Pro';font-size:12px;font-weight:700;text-anchor:middle"><tspan id="tspan10258" x="44.5" y="21" style="fill:gray">C6</tspan></text>
   </g>
  </g>
  <g id="g10381">
   <path id="Line-2" transform="translate(246.1,9)" d="m42 48v-43h1v43h4l-4.5 9-4.5-9z" style="fill:#8f8981"/>
   <g id="g10374">
    <rect id="Rectangle-2" transform="matrix(.83962 0 0 1 244.1 9)" width="106" height="33" style="fill-rule:evenodd;fill:#f44d27"/>
    <text id="master" transform="translate(235.7 9.316)" font-size="12px" font-weight="700" style="fill-rule:evenodd;fill:#979797;font-family:'Source Code Pro';font-size:12px;font-weight:700;text-anchor:middle"><tspan id="tspan10267" x="53" y="20" style="fill:#f0f0f0">master</tspan></text>
   </g>
  </g>
  <g id="g10403">
   <path id="path10272" transform="translate(452,117)" d="m9 16h60v1h-60v4l-9-4.5 9-4.5z" style="fill:#8f8981"/>
   <g id="g10396">
    <rect id="rect10274" transform="matrix(.83962 0 0 1 478 117)" width="106" height="33" style="fill-rule:evenodd;fill:#f44d27"/>
    <text id="text10278" transform="translate(469.1 116.87)" font-size="12px" font-weight="700" style="fill-rule:evenodd;fill:#979797;font-family:'Source Code Pro';font-size:12px;font-weight:700;text-anchor:middle"><tspan id="tspan10276" x="53" y="20" style="fill:#f0f0f0">ruby_client</tspan></text>
   </g>
  </g>
  <g id="g10423">
   <path id="path10283" transform="translate(452,170)" d="m9 16h60v1h-60v4l-9-4.5 9-4.5z" style="fill:#8f8981"/>
   <g id="g10416">
    <rect id="rect10285" transform="matrix(.83962 0 0 1 478 170)" width="106" height="33" style="fill-rule:evenodd;fill:#f44d27"/>
    <text id="text10289" transform="translate(469.37 169.93)" font-size="12px" font-weight="700" style="fill-rule:evenodd;fill:#979797;font-family:'Source Code Pro';font-size:12px;font-weight:700;text-anchor:middle"><tspan id="tspan10287" x="53" y="20" style="fill:#f0f0f0">php_client</tspan></text>
   </g>
  </g>
 </g>
</svg>
